picto/luggage-reclaim.svg

<svg class="color-immutable" width="24" height="24" viewBox="0 0 24 24" fill="none" xmlns="http://www.w3.org/2000/svg"><g clip-path="url(#a)"><path d="M0 22.5v-21C0 .675.675 0 1.5 0h21c.825 0 1.5.675 1.5 1.5v21c0 .825-.675 1.5-1.5 1.5h-21C.675 24 0 23.325 0 22.5Z" fill="#2D327D"/><path d="M5.531 9.657a.32.32 0 0 0 .452-.452l-.337-.335.134-.136.917.917a.338.338 0 1 0 .478-.478l-.917-.916.136-.135 1.529 1.529a.337.337 0 0 0 .575-.239.345.345 0 0 0-.098-.239L6.87 7.644l.136-.135 2.136 2.137a.357.357 0 0 0 .503-.505L6.63 6.126a.337.337 0 0 1 .238-.577h1.194a.45.45 0 0 0 .446-.513.187.187 0 0 0-.186-.161H3V7.5h.374l2.157 2.157ZM14.25 18.45V13.2c0-.621-.504-1.125-1.125-1.125H10.5V11.4a.9.9 0 0 0-.899-.9H7.65a.9.9 0 0 0-.899.9v.675H4.125C3.503 12.075 3 12.579 3 13.2v5.25c0 .621.503 1.125 1.125 1.125h9c.621 0 1.125-.504 1.125-1.125Zm-6.825-7.275h2.401v.9H7.425v-.9Zm4.013 5.137a.301.301 0 0 1-.301.301H9.113a.3.3 0 0 1-.3-.301v-2.598c0-.08.032-.155.087-.212h.001l.621-.622a.19.19 0 0 1 .134-.056h.281v.376h.374v-.375h.282c.049 0 .098.02.132.056l.623.622a.297.297 0 0 1 .088.212v2.597h.002ZM9.75 20.325H21V21H9.75v-.675Z" fill="#fff"/></g><defs><clipPath id="a"><path fill="#fff" d="M0 0h24v24H0z"/></clipPath></defs></svg>

<svg class="color-immutable" width="24" height="24" viewBox="0 0 24 24" fill="none" xmlns="http://www.w3.org/2000/svg"><path d="M0 22.5V1.5C0 0.675 0.675 0 1.5 0H22.5C23.325 0 24 0.675 24 1.5V22.5C24 23.325 23.325 24 22.5 24H1.5C0.675 24 0 23.325 0 22.5Z" fill="#2D327D"/><path d="M5.531 9.657C5.591 9.717 5.673 9.75 5.757 9.75C5.932 9.75 6.076 9.607 6.076 9.431C6.076 9.347 6.043 9.265 5.983 9.205L5.646 8.87L5.78 8.734L6.697 9.651C6.761 9.715 6.847 9.75 6.936 9.75C7.123 9.75 7.274 9.6 7.274 9.412C7.274 9.323 7.238 9.237 7.175 9.173L6.258 8.257L6.394 8.122L7.923 9.651C7.985 9.715 8.071 9.75 8.16 9.75C8.347 9.75 8.498 9.6 8.498 9.412C8.498 9.323 8.462 9.237 8.4 9.173L6.87 7.644L7.006 7.509L9.142 9.646C9.208 9.713 9.299 9.75 9.394 9.75C9.59 9.75 9.75 9.59 9.75 9.393C9.75 9.299 9.712 9.208 9.645 9.141L6.63 6.126C6.566 6.063 6.531 5.976 6.531 5.887C6.531 5.7 6.682 5.549 6.868 5.549H8.062C8.311 5.549 8.513 5.348 8.513 5.1C8.513 5.078 8.512 5.056 8.508 5.036C8.495 4.943 8.416 4.875 8.322 4.875H3V7.5H3.374L5.531 9.657Z" fill="white"/><path d="M14.25 18.45V13.2C14.25 12.579 13.746 12.075 13.125 12.075H10.5V11.4C10.5 10.903 10.097 10.5 9.601 10.5H7.65C7.154 10.5 6.751 10.903 6.751 11.4V12.075H4.125C3.503 12.075 3 12.579 3 13.2V18.45C3 19.071 3.503 19.575 4.125 19.575H13.125C13.746 19.575 14.25 19.071 14.25 18.45ZM7.425 11.175H9.826V12.075H7.425V11.175ZM11.438 16.312C11.438 16.478 11.303 16.613 11.137 16.613H9.113C8.947 16.613 8.813 16.478 8.813 16.312V13.714C8.813 13.634 8.845 13.559 8.9 13.502H8.901L9.522 12.88C9.558 12.844 9.606 12.824 9.656 12.824H9.937V13.2H10.311V12.825H10.593C10.642 12.825 10.691 12.845 10.725 12.881L11.348 13.503C11.405 13.56 11.436 13.635 11.436 13.715V16.312H11.438Z" fill="white"/><path d="M9.75 20.325H21V21H9.75V20.325Z" fill="white"/></svg>
